packages/dnb-ui-lib/assets/icons/view_off_medium.svg

<svg width="25" height="24" viewBox="0 0 25 24" fill="none" xmlns="http://www.w3.org/2000/svg">
<path fill-rule="evenodd" clip-rule="evenodd" d="M22.0742 2.4806C22.3611 2.77941 22.3514 3.25419 22.0526 3.54104L3.3026 21.541C3.00379 21.8279 2.52902 21.8182 2.24216 21.5194C1.95531 21.2206 1.965 20.7458 2.2638 20.459L21.0138 2.45896C21.3126 2.1721 21.7874 2.18179 22.0742 2.4806ZM19.1441 8.43782C19.3883 8.10326 19.8575 8.03001 20.1921 8.27422C21.3472 9.11745 22.4147 10.0748 23.3781 11.1318L23.3811 11.135C24.2079 12.053 24.2079 13.4471 23.3811 14.365L23.3789 14.3674C20.7595 17.2502 16.4138 20.3201 11.9964 20.25C10.893 20.2574 9.79516 20.0945 8.74142 19.7673C8.34585 19.6444 8.12476 19.2241 8.24761 18.8286C8.37047 18.433 8.79073 18.2119 9.18631 18.3348C10.0953 18.6171 11.0425 18.7571 11.9943 18.75L12.0125 18.7501C15.7913 18.8137 19.7568 16.1226 22.2676 13.3599C22.579 13.0131 22.5791 12.4874 22.2679 12.1404C21.3727 11.1586 20.3809 10.2692 19.3077 9.48579C18.9731 9.24158 18.8999 8.77239 19.1441 8.43782ZM14.5939 5.55419C13.7463 5.34326 12.8753 5.24102 12.0018 5.24993C7.65675 5.18264 3.30112 8.18562 0.623881 11.1305L0.623875 11.1305L0.621565 11.133C-0.205235 12.0509 -0.205235 13.445 0.621565 14.363L0.621551 14.363L0.625086 14.3668C1.45075 15.2707 2.35192 16.1025 3.31884 16.8534C3.646 17.1074 4.11716 17.0481 4.3712 16.721C4.62525 16.3938 4.56598 15.9227 4.23882 15.6686C3.33999 14.9707 2.50222 14.1975 1.73458 13.3574C1.42359 13.0104 1.42376 12.4848 1.73508 12.1381C4.29773 9.31984 8.27455 6.68818 11.9874 6.74989L12.0082 6.74995C12.7574 6.74155 13.5046 6.82887 14.2317 7.0098C14.6337 7.10983 15.0406 6.86506 15.1406 6.46311C15.2407 6.06115 14.9959 5.65422 14.5939 5.55419ZM11.9998 9.75C11.2041 9.74979 10.441 10.0658 9.87839 10.6284C9.31577 11.191 8.99979 11.9541 9 12.7498C9.00011 13.164 8.66441 13.4999 8.2502 13.5C7.83599 13.5001 7.50011 13.1644 7.5 12.7502C7.49968 11.5566 7.97371 10.4117 8.81773 9.56773C9.66175 8.72371 10.8066 8.24968 12.0002 8.25C12.4144 8.25011 12.7501 8.58599 12.75 9.0002C12.7499 9.41441 12.414 9.75011 11.9998 9.75ZM14.1216 13.8716C13.559 14.4342 12.7959 14.7502 12.0002 14.75C11.586 14.7499 11.2501 15.0856 11.25 15.4998C11.2499 15.914 11.5856 16.2499 11.9998 16.25C13.1934 16.2503 14.3383 15.7763 15.1823 14.9323C16.0263 14.0883 16.5003 12.9434 16.5 11.7498C16.4999 11.3356 16.164 10.9999 15.7498 11C15.3356 11.0001 14.9999 11.336 15 11.7502C15.0002 12.5459 14.6842 13.309 14.1216 13.8716Z" fill="black"/>
</svg>

<svg width="24" height="24" viewBox="0 0 25 24" fill="none" xmlns="http://www.w3.org/2000/svg"><path fill-rule="evenodd" clip-rule="evenodd" d="M22.074 2.48a.75.75 0 01-.021 1.061l-18.75 18a.75.75 0 11-1.04-1.082l18.75-18a.75.75 0 011.061.022zm-2.93 5.958a.75.75 0 011.048-.164c1.155.843 2.223 1.8 3.186 2.858l.003.003a2.413 2.413 0 010 3.23l-.002.002c-2.62 2.883-6.965 5.953-11.383 5.883a10.733 10.733 0 01-3.255-.483.75.75 0 01.445-1.432 9.235 9.235 0 002.808.415h.018c3.78.064 7.745-2.627 10.256-5.39a.913.913 0 000-1.22 19.822 19.822 0 00-2.96-2.654.75.75 0 01-.164-1.048zm-4.55-2.884a10.299 10.299 0 00-2.592-.304c-4.345-.067-8.7 2.936-11.378 5.88l-.002.003a2.413 2.413 0 000 3.23l.003.004a21.552 21.552 0 002.694 2.486.75.75 0 00.92-1.184 20.044 20.044 0 01-2.504-2.312.913.913 0 010-1.219c2.563-2.818 6.54-5.45 10.252-5.388h.021a8.8 8.8 0 012.224.26.75.75 0 10.362-1.456zM12 9.75a2.999 2.999 0 00-3 3 .75.75 0 01-1.5 0 4.499 4.499 0 014.5-4.5.75.75 0 010 1.5zm2.122 4.122A2.999 2.999 0 0112 14.75a.75.75 0 000 1.5 4.5 4.5 0 004.5-4.5.75.75 0 00-1.5 0c0 .796-.316 1.559-.878 2.122z" fill="#000"/></svg>
